X:1
T: Lady Susan Harriet Ker
C:
R:Reel
Q: 232
K:A
M:4/4
L:1/8
|:c|F3A EF Ac|df ec BA Bc|F3A EF Ac|df ec B2 Ac|
F3A EF Ac|df ec BA Bc|F3A EF Ac|df ec B2 AA|
EA CA DA EA|FA DB GE EA|EA CA DA EA|FA Gd cA Ae|
cA cA dA eA|fA BA GB eG|F3A EF Ac|df ec B2 A:|
